X: 4
T: Old Man Dillon
R: jig
M: 6/8
L: 1/8
K: Gmaj
EAA ABd | edB c2 A | BGG DGG | Bdc BAG |EAA ABd | ede a2 e | edc Bcd | ecA A2 :|gef g2 a | gef g2 d | BGG DGG | B/c/dc BAG |[1 gef g2 a | gef g2 d | edc Bcd | ecA A2 :|[2 EAA ABd | ede a2 e | edc Bcd | ecA A2 |]


Tune 2200	Setting 15566

